img/svg/telegram-circle.svg

<svg viewBox="0 0 25 25" xmlns="http://www.w3.org/2000/svg">
    <path
        d="M12.1465 0.250488C18.7271 0.250488 24.1465 5.66984 24.1465 12.2505C24.1465 18.8795 18.7271 24.2505 12.1465 24.2505C5.51745 24.2505 0.146484 18.8795 0.146484 12.2505C0.146484 5.66984 5.51745 0.250488 12.1465 0.250488ZM17.6626 8.42791C17.711 8.28275 17.711 8.13759 17.6626 7.94404C17.6626 7.84726 17.5658 7.7021 17.5175 7.65371C17.3723 7.50855 17.1304 7.50855 17.0336 7.50855C16.5981 7.50855 15.8723 7.75049 12.5336 9.15371C11.3723 9.63758 9.04971 10.6053 5.56584 12.1537C4.98519 12.3956 4.69487 12.5892 4.64648 12.8311C4.5981 13.2182 5.22713 13.3634 5.95294 13.6053C6.58197 13.7989 7.40455 14.0408 7.84003 14.0408C8.22713 14.0408 8.66261 13.8956 9.14648 13.5569C12.3884 11.3311 14.082 10.2182 14.1787 10.2182C14.2755 10.2182 14.3723 10.1698 14.4207 10.2182C14.5175 10.315 14.5175 10.4118 14.4691 10.4602C14.4207 10.7021 11.3723 13.5086 11.1787 13.7021C10.5013 14.3795 9.72713 14.815 10.9368 15.5892C11.9529 16.2666 12.5336 16.7021 13.5981 17.3795C14.2755 17.815 14.8078 18.3473 15.4852 18.2989C15.8239 18.2505 16.1626 17.9602 16.3078 17.0408C16.7433 14.9602 17.5175 10.315 17.6626 8.42791Z"
        />
</svg>

<svg viewBox="0 0 25 25" xmlns="http://www.w3.org/2000/svg"><path d="M12.146.25c6.581 0 12 5.42 12 12 0 6.63-5.419 12-12 12-6.629 0-12-5.37-12-12 0-6.58 5.371-12 12-12zm5.517 8.178a.82.82 0 000-.484c0-.097-.097-.242-.146-.29-.145-.145-.387-.145-.483-.145-.436 0-1.162.241-4.5 1.645-1.162.484-3.484 1.451-6.968 3-.58.242-.871.435-.92.677-.048.387.581.532 1.307.774.629.194 1.452.436 1.887.436.387 0 .823-.145 1.306-.484 3.242-2.226 4.936-3.339 5.033-3.339.096 0 .193-.048.242 0 .097.097.097.194.048.242-.048.242-3.097 3.049-3.29 3.242-.678.678-1.452 1.113-.242 1.887 1.016.678 1.597 1.113 2.661 1.79.677.436 1.21.968 1.887.92.339-.049.678-.339.823-1.258.435-2.08 1.21-6.726 1.355-8.613z"/></svg>
